X: 40807
T: Traditional
R: strathspey
M: 4/4
K: Gmajor
|:B2B>c d<B A>G|E>F G>AB2B>c|B2B>c d<B A>G|A>B d>e f>d d>A:|
|:d>e f>g a>b a>f|d>e f>a b<e e>f|1 d>e f>g a>b a>f|e>f d>e f<d d>e:|
[2 f>d e>f d<B A>F|A>B d>e f>d d>A||

